material/.icons/material/car-child-seat.svg

<svg xmlns="http://www.w3.org/2000/svg" viewBox="0 0 24 24"><path d="M17 4.5C17 5.9 15.9 7 14.5 7S12 5.9 12 4.5 13.1 2 14.5 2 17 3.1 17 4.5M15 8h-.8c-2.1 0-4.1-1.2-5.1-3.1-.1-.1-.2-.2-.2-.3l-1.8.8c.5 1.4 2.1 3.2 4.4 4.1l-1.8 5-3.9-1.1L3 18.9l2 .5 1.8-3.6 4.5 1.2c1 .2 2-.3 2.4-1.2L16 9.4c.2-.7-.3-1.4-1-1.4m3.9-1l-3.4 9.4c-.6 1.6-2.1 2.6-3.7 2.6-.3 0-.7 0-1-.1l-2.9-.8-.9 1.8 2 .5 1.4.4c.5.1 1 .2 1.5.2 2.5 0 4.7-1.5 5.6-3.9L21 7h-2.1z"/></svg>

<?xml version="1.0" encoding="UTF-8"?><!DOCTYPE svg PUBLIC "-//W3C//DTD SVG 1.1//EN" "http://www.w3.org/Graphics/SVG/1.1/DTD/svg11.dtd"><svg xmlns="http://www.w3.org/2000/svg" xmlns:xlink="http://www.w3.org/1999/xlink" version="1.1" id="mdi-car-child-seat" width="24" height="24" viewBox="0 0 24 24"><path d="M17 4.5C17 5.9 15.9 7 14.5 7S12 5.9 12 4.5 13.1 2 14.5 2 17 3.1 17 4.5M15 8H14.2C12.1 8 10.1 6.8 9.1 4.9C9 4.8 8.9 4.7 8.9 4.6L7.1 5.4C7.6 6.8 9.2 8.6 11.5 9.5L9.7 14.5L5.8 13.4L3 18.9L5 19.4L6.8 15.8L11.3 17C12.3 17.2 13.3 16.7 13.7 15.8L16 9.4C16.2 8.7 15.7 8 15 8M18.9 7L15.5 16.4C14.9 18 13.4 19 11.8 19C11.5 19 11.1 19 10.8 18.9L7.9 18.1L7 19.9L9 20.4L10.4 20.8C10.9 20.9 11.4 21 11.9 21C14.4 21 16.6 19.5 17.5 17.1L21 7H18.9Z" /></svg>
